UI/Navigation-Image/SVG/skip_outline_24px.svg

<svg width="24" height="24" viewBox="0 0 24 24" fill="none" xmlns="http://www.w3.org/2000/svg">
<path d="M2 22H5V14H2V22ZM9 22H15V14H9V22ZM11 16H13V20H11V16ZM19 14V22H22V14H19ZM17.74 7H14V9H21V2H19V5.36C17.8311 3.91355 16.2428 2.86472 14.4535 2.35773C12.6643 1.85074 10.7619 1.91048 9.00793 2.52875C7.254 3.14701 5.73465 4.29343 4.65882 5.81037C3.58298 7.32732 3.00348 9.14029 3 11H5C5.00139 9.51098 5.47756 8.0612 6.35932 6.86133C7.24108 5.66146 8.48248 4.77403 9.90312 4.32798C11.3238 3.88194 12.8496 3.90054 14.259 4.38106C15.6683 4.86158 16.8877 5.779 17.74 7Z" fill="#0F1621"/>
</svg>

<svg xmlns="http://www.w3.org/2000/svg" width="24" height="24" viewBox="0 0 24 24"><rect width="24" height="24" style="fill:none"/><path d="M2,22H5V14H2Zm7,0h6V14H9Zm2-6h2v4H11Zm8-2v8h3V14ZM17.74,7H14V9h7V2H19V5.36A9,9,0,0,0,3,11H5A7,7,0,0,1,17.74,7Z"/></svg>
